Numix-GalliumOS/48/actions/active-notes.svg

<?xml version="1.0" encoding="UTF-8" standalone="no"?>
<svg
   xmlns:dc="http://purl.org/dc/elements/1.1/"
   xmlns:cc="http://creativecommons.org/ns#"
   xmlns:rdf="http://www.w3.org/1999/02/22-rdf-syntax-ns#"
   xmlns:svg="http://www.w3.org/2000/svg"
   xmlns="http://www.w3.org/2000/svg"
   xmlns:xlink="http://www.w3.org/1999/xlink"
   xmlns:sodipodi="http://sodipodi.sourceforge.net/DTD/sodipodi-0.dtd"
   xmlns:inkscape="http://www.inkscape.org/namespaces/inkscape"
   viewBox="0 0 48 48"
   id="svg2"
   version="1.1"
   inkscape:version="0.91 r13725"
   sodipodi:docname="active-notes.svg">
  <metadata
     id="metadata98">
    <rdf:RDF>
      <cc:Work
         rdf:about="">
        <dc:format>image/svg+xml</dc:format>
        <dc:type
           rdf:resource="http://purl.org/dc/dcmitype/StillImage" />
        <dc:title></dc:title>
      </cc:Work>
    </rdf:RDF>
  </metadata>
  <sodipodi:namedview
     pagecolor="#ffffff"
     bordercolor="#666666"
     borderopacity="1"
     objecttolerance="10"
     gridtolerance="10"
     guidetolerance="10"
     inkscape:pageopacity="0"
     inkscape:pageshadow="2"
     inkscape:window-width="1366"
     inkscape:window-height="704"
     id="namedview96"
     showgrid="false"
     inkscape:zoom="1"
     inkscape:cx="28.494078"
     inkscape:cy="14.48443"
     inkscape:window-x="0"
     inkscape:window-y="27"
     inkscape:window-maximized="1"
     inkscape:current-layer="svg2">
    <inkscape:grid
       type="xygrid"
       id="grid4360" />
  </sodipodi:namedview>
  <defs
     id="defs4">
    <path
       id="SVGCleanerId_0"
       d="m 14 12 l 20 0 c 1.105 0 2 0.895 2 2 l 0 20 c 0 1.105 -0.895 2 -2 2 l -20 0 c -1.105 0 -2 -0.895 -2 -2 l 0 -20 c 0 -1.105 0.895 -2 2 -2 m 0 0" />
  </defs>
  <g
     id="g34" />
  <use
     height="100%"
     width="100%"
     y="0"
     x="0"
     style="fill:none;stroke:#af8566;stroke-width:2.32258081;stroke-linecap:butt;stroke-linejoin:miter;stroke-miterlimit:4;stroke-dasharray:none;stroke-opacity:1"
     id="use72"
     xlink:href="#SVGCleanerId_0"
     stroke-miterlimit="4"
     transform="matrix(1.2916667,0,0,1.2916667,-7.0000008,-7.0000008)" />
  <use
     height="100%"
     width="100%"
     y="0"
     x="0"
     style="fill:#fff4ab;fill-opacity:1;fill-rule:nonzero;stroke:none"
     id="use74"
     xlink:href="#SVGCleanerId_0"
     transform="matrix(1.25,0,0,1.25,-6,-6)" />
  <path
     style="fill:#e4d66a;fill-opacity:1;fill-rule:nonzero;stroke:none"
     inkscape:connector-curvature="0"
     id="path84"
     d="m 9,30 30,0 0,2 -30,0 z"
     sodipodi:nodetypes="ccccc" />
  <path
     style="fill:#e4d66a;fill-opacity:1;fill-rule:nonzero;stroke:none"
     inkscape:connector-curvature="0"
     id="path84-3"
     d="M 9.0000002,24 39,24 39,26 9.0000002,26 Z"
     sodipodi:nodetypes="ccccc" />
  <path
     style="fill:#e4d66a;fill-opacity:1;fill-rule:nonzero;stroke:none"
     inkscape:connector-curvature="0"
     id="path84-3-9"
     d="M 9.0000002,18 39,18 39,20 9.0000002,20 Z"
     sodipodi:nodetypes="ccccc" />
  <path
     style="fill:#e6b2a9;fill-opacity:1;fill-rule:nonzero;stroke:none"
     inkscape:connector-curvature="0"
     id="path86"
     d="m 17,9 2,0 0,30 -2,0 z"
     sodipodi:nodetypes="ccccc" />
  <g
     id="g4168"
     transform="matrix(-0.5,0,0,-0.5,46,46)">
    <path
       id="path4154"
       d="M 44,24 C 44,35.042969 35.042969,44 24,44 12.957031,44 4,35.042969 4,24 4,12.957031 12.957031,4 24,4 35.042969,4 44,12.957031 44,24 Z"
       style="fill:#268bd2;fill-rule:evenodd"
       inkscape:connector-curvature="0" />
    <g
       id="g4156"
       style="fill:#ffffff;fill-opacity:0.9020004">
      <path
         id="path4158"
         d="m 28,38 -8,0 0,-16 8,0 0,16"
         inkscape:connector-curvature="0"
         sodipodi:nodetypes="ccccc" />
      <path
         id="path4160"
         d="m 28,14 c 0,2.203125 -1.796875,4 -4,4 -2.203125,0 -4,-1.796875 -4,-4 0,-2.203125 1.796875,-4 4,-4 2.203125,0 4,1.796875 4,4 z"
         style="fill-rule:evenodd"
         inkscape:connector-curvature="0" />
    </g>
  </g>
</svg>

<svg xmlns="http://www.w3.org/2000/svg" xmlns:xlink="http://www.w3.org/1999/xlink" viewBox="0 0 48 48">
 <defs>
  <path id="SVGCleanerId_0" d="m 14 12 l 20 0 c 1.105 0 2 0.895 2 2 l 0 20 c 0 1.105 -0.895 2 -2 2 l -20 0 c -1.105 0 -2 -0.895 -2 -2 l 0 -20 c 0 -1.105 0.895 -2 2 -2 m 0 0"/>
 </defs>
 <use height="48" width="48" xlink:href="#SVGCleanerId_0" transform="matrix(1.2916667,0,0,1.2916667,-7.0000008,-7.0000008)" style="stroke-dasharray:none;stroke-opacity:1;fill:none;stroke-miterlimit:4;stroke:#af8566;stroke-linecap:butt;stroke-linejoin:miter;stroke-width:2.323"/>
 <use height="48" width="48" xlink:href="#SVGCleanerId_0" transform="matrix(1.25,0,0,1.25,-6,-6)" style="fill:#fff4ab;fill-opacity:1;stroke:none;fill-rule:nonzero"/>
 <path d="m 9 30 30 0 0 2 -30 0 z" style="fill:#e4d66a;fill-opacity:1;stroke:none;fill-rule:nonzero"/>
 <path d="m 9 24 30 0 0 2 -30 0" style="fill:#e4d66a;fill-opacity:1;stroke:none;fill-rule:nonzero"/>
 <path d="m 9 18 30 0 0 2 -30 0" style="fill:#e4d66a;fill-opacity:1;stroke:none;fill-rule:nonzero"/>
 <path d="m 17 9 2 0 0 30 -2 0 z" style="fill:#e6b2a9;fill-opacity:1;stroke:none;fill-rule:nonzero"/>
 <g transform="matrix(-0.5,0,0,-0.5,46,46)">
  <path d="m 44 24 c 0 11.04 -8.957 20 -20 20 -11.04 0 -20 -8.957 -20 -20 0 -11.04 8.957 -20 20 -20 11.04 0 20 8.957 20 20" style="fill:#268bd2;fill-rule:evenodd"/>
  <g style="fill:#fff;fill-opacity:0.902">
   <path d="m 28 38 -8 0 0 -16 8 0 0 16"/>
   <path d="m 28 14 c 0 2.203 -1.797 4 -4 4 -2.203 0 -4 -1.797 -4 -4 0 -2.203 1.797 -4 4 -4 2.203 0 4 1.797 4 4 z" style="fill-rule:evenodd"/>
  </g>
 </g>
</svg>
